X: 39469
T: Tarbolton, The
R: reel
M: 4/4
K: Edorian
A|Beed edBA|GAAF GFEG|Fdef dBAF|GGGA FADA|
Bedf ggge|ffdf edBA|GGGA FFAF|GBAF GEEE||
Beed eBBA|GAAF GGBG|FAEF DBef|ggag fadA|
BBBG EFge|fedf edBA|GGBG FGAB|BAdf geee||
gBef gebe|gbbe bagf|dffd aaad|BdAg fadf|
ggga ffad|eeef gfeB|dBGB AGFA|AGAF GBeB||
GFEF GebE|GbbB gfEF|Dafd fdAd|BdAF DDFA|
GGFE FFED|EEEF GABd|BGDB AGFD|GBFB EEE2||

